; HEADER_BLOCK_START
; generated by Creality_Print V7.0.1.4212 on 2026-03-06 at 15:58:13
; total layer number: 175
; filament_density: 1.23
; filament_diameter: 1.75
; max_z_height: 35.00
; creality_uuid: 78d203e7-8bfe-403b-95b3-ccbfacbff081
; HEADER_BLOCK_END

; MINX = 32.55
; MINY = 40.84
; MINZ = 0.00
; MAXX = 187.52
; MAXY = 179.15
; MAXZ = 35.00

; multicolor_method = 0 
; THUMBNAIL_BLOCK_START

;
; THUMBNAIL_BLOCK_END

; THUMBNAIL_BLOCK_START

;
; THUMBNAIL_BLOCK_END

; external perimeters extrusion width = 0.42mm
; perimeters extrusion width = 0.45mm
; infill extrusion width = 0.45mm
; solid infill extrusion width = 0.42mm
; top infill extrusion width = 0.42mm
; first layer extrusion width = 0.50mm

; external perimeters extrusion width = 0.42mm
; perimeters extrusion width = 0.45mm
; infill extrusion width = 0.45mm
; solid infill extrusion width = 0.42mm
; top infill extrusion width = 0.42mm
; first layer extrusion width = 0.50mm

; external perimeters extrusion width = 0.42mm
; perimeters extrusion width = 0.45mm
; infill extrusion width = 0.45mm
; solid infill extrusion width = 0.42mm
; top infill extrusion width = 0.42mm
; first layer extrusion width = 0.50mm

; external perimeters extrusion width = 0.42mm
; perimeters extrusion width = 0.45mm
; infill extrusion width = 0.45mm
; solid infill extrusion width = 0.42mm
; top infill extrusion width = 0.42mm
; first layer extrusion width = 0.50mm

; external perimeters extrusion width = 0.42mm
; perimeters extrusion width = 0.45mm
; infill extrusion width = 0.45mm
; solid infill extrusion width = 0.42mm
; top infill extrusion width = 0.42mm
; first layer extrusion width = 0.50mm

; EXECUTABLE_BLOCK_START
EXCLUDE_OBJECT_DEFINE NAME=Ball_arm.stl_id_0_copy_0 CENTER=109.997,160.077 POLYGON=[[32.5485,160.445],[37.2258,141],[182.79,141],[184.854,148.476],[187.446,157.869],[110.33,179.155],[32.5485,160.445]]
EXCLUDE_OBJECT_DEFINE NAME=Ball_arm.stl_id_1_copy_0 CENTER=109.997,119.921 POLYGON=[[32.5485,120.289],[37.2258,100.843],[182.79,100.843],[184.854,108.32],[187.446,117.713],[110.33,138.998],[32.5485,120.289]]
EXCLUDE_OBJECT_DEFINE NAME=Ball_box.stl_id_2_copy_0 CENTER=158.162,69.8435 POLYGON=[[128.804,40.8435],[187.521,40.8435],[187.521,98.8435],[128.804,98.8435],[128.804,40.8435]]
EXCLUDE_OBJECT_DEFINE NAME=Ball_plate.stl_id_3_copy_0 CENTER=116.804,90.8435 POLYGON=[[106.804,82.8435],[126.804,82.8435],[126.804,98.8435],[106.804,98.8435],[106.804,82.8435]]
EXCLUDE_OBJECT_DEFINE NAME=Ball_plate.stl_id_4_copy_0 CENTER=96.8035,88.8435 POLYGON=[[88.8035,78.8435],[104.804,78.8435],[104.804,98.8435],[88.8035,98.8435],[88.8035,78.8435]]
M73 P0 R89
; max_print_temp = 75,250
;TYPE:Custom
M220 S100 ;Reset Feedrate 
M221 S100 ;Reset Flowrate 
 
M140 S75 ;Set final bed temp  
G28 ;Home 
 
G92 E0 ;Reset Extruder 
G1 Z2.0 F3000 ;Move Z Axis up 
M104 S250 ;Set final nozzle temp  
G1 X-2.0 Y20 Z0.28 F5000.0 ;Move to start position 
M190 S75 ;Wait for bed temp to stabilize  
M109 S250 ;Wait for nozzle temp to stabilize  
G1 X-2.0 Y145.0 Z0.28 F1500.0 E15 ;Draw the first line 
G1 X-1.7 Y145.0 Z0.28 F5000.0 ;Move to side a little 
G1 X-1.7 Y20 Z0.28 F1500.0 E30 ;Draw the second line 
G92 E0 ;Reset Extruder 
G1 E-1.0000 F1800 ;Retract a bit 
G1 Z2.0 F3000 ;Move Z Axis up 
G1 E0.0000 F1800
G90
G21
M83 ; use relative distances for extrusion
; filament start gcode
SET_PRESSURE_ADVANCE ADVANCE=0.08; Override pressure advance value
G1 E-.8 F1800
G1 Z.2 F18000
M106 S0
;LAYER_CHANGE
;:0.2
;HEIGHT:0.2
;BEFORE_LAYER_CHANGE
;0.2
G92 E0
;TIME_ELAPSED:65.254807
;_SET_FAN_SPEED_CHANGING_LAYER
SET_VELOCITY_LIMIT ACCEL=500 ACCEL_TO_DECEL=125
SET_VELOCITY_LIMIT SQUARE_CORNER_VELOCITY=9
; OBJECT_ID: 380
; printing object Ball_box.stl id:2 copy 0
EXCLUDE_OBJECT_START NAME=Ball_box.stl_id_2_copy_0
G1 X122.725 Y39.317 Z.4 F18000
G1 Z.2
G1 E.8 F1800
;TYPE:Brim
;WIDTH:0.5
G1 F3000
G1 X122.962 Y38.584 E.0278
G1 X123.351 Y37.772 E.03251
G1 X123.766 Y37.122 E.02785
G1 X124.259 Y36.529 E.02784
G1 X124.821 Y36.001 E.02784
G1 X125.445 Y35.549 E.02784
G1 X126.118 Y35.178 E.02775
G1 X127.1 Y34.813 E.0378
G1 X127.849 Y34.648 E.02772
G1 X128.812 Y34.573 E.03488
G1 X187.513 Y34.573 E2.11946
G1 X188.29 Y34.622 E.02809
G1 X189.047 Y34.765 E.02784
G1 X189.781 Y35.002 E.02782
G1 X190.509 Y35.345 E.02905
G1 X191.243 Y35.807 E.03131
G1 X191.836 Y36.299 E.02781
G1 X192.363 Y36.861 E.02784
G1 X192.815 Y37.485 E.02784
G1 X193.186 Y38.159 E.02776
G1 X193.536 Y39.087 E.03583
G1 X193.716 Y39.89 E.02969
G1 X193.791 Y40.852 E.03486
G1 X193.791 Y98.836 E2.09357
G1 X193.743 Y99.613 E.02809
G1 X193.599 Y100.37 E.02784
G1 X193.362 Y101.103 E.0278
G1 X192.973 Y101.915 E.03251
G1 X192.558 Y102.565 E.02785
G1 X192.066 Y103.158 E.02784
G1 X191.503 Y103.686 E.02784
G1 X190.879 Y104.138 E.02784
G1 X190.206 Y104.509 E.02775
G1 X189.224 Y104.874 E.0378
G1 X188.475 Y105.039 E.02772
G1 X187.512 Y105.114 E.03488
G1 X184.31 Y105.114 E.11561
G1 X183.107 Y100.756 E.16323
G1 X183.053 Y100.65 E.00429
G1 X182.911 Y100.548 E.00632
G1 X182.817 Y100.525 E.0035
G1 X182.703 Y100.527 E.00413
G1 X166.083 Y105.114 E.62251
G1 X128.811 Y105.114 E1.34577
G1 X128.034 Y105.065 E.02809
G1 X127.277 Y104.922 E.02784
G1 X126.544 Y104.685 E.0278
G1 X125.732 Y104.296 E.03251
G1 X125.082 Y103.881 E.02785
G1 X124.489 Y103.388 E.02784
G1 X123.961 Y102.826 E.02784
G1 X123.509 Y102.202 E.02784
G1 X123.138 Y101.529 E.02775
G1 X122.773 Y100.547 E.0378
G1 X122.608 Y99.798 E.02772
G1 X122.559 Y99.172 E.02266
G1 X126.804 Y99.172 E.15325
G1 X126.92 Y99.148 E.00429
G1 X127.057 Y99.039 E.00632
G1 X127.103 Y98.954 E.0035
G1 X127.132 Y98.843 E.00413
G1 X127.132 Y82.843 E.5777
G1 X127.108 Y82.727 E.00429
G1 X126.999 Y82.59 E.00632
G1 X126.914 Y82.544 E.0035
G1 X126.804 Y82.515 E.00413
G1 X122.533 Y82.515 E.15419
G1 X122.533 Y40.851 E1.50433
G1 X122.582 Y40.074 E.02809
G1 X122.718 Y39.356 E.02639
G1 X123.167 Y39.441 F18000
G1 F3000
G1 X123.167 Y39.438 E.0001
G1 X123.385 Y38.763 E.02563
G1 X123.756 Y37.988 E.03103
G1 X124.131 Y37.399 E.02521
G1 X124.587 Y36.849 E.02577
G1 X125.12 Y36.35 E.02638
G1 X125.698 Y35.931 E.02577
G1 X126.319 Y35.592 E.02555
G1 X127.239 Y35.251 E.03542
G1 X127.926 Y35.1 E.02542
G1 X128.835 Y35.03 E.03292
G1 X187.503 Y35.03 E2.11827
G1 X188.241 Y35.078 E.0267
G1 X188.942 Y35.212 E.02577
G1 X189.62 Y35.432 E.02574
G1 X190.296 Y35.751 E.02698
G1 X190.967 Y36.173 E.0286
G1 X191.527 Y36.638 E.02632
G1 X192.004 Y37.147 E.02515
G1 X192.424 Y37.724 E.02577
G1 X192.773 Y38.36 E.02621
G1 X193.093 Y39.21 E.0328
G1 X193.261 Y39.948 E.02734
G1 X193.334 Y40.865 E.03319
G1 X193.334 Y98.818 E2.09245
G1 X193.287 Y99.564 E.02701
G1 X193.157 Y100.249 E.02515
G1 X192.939 Y100.924 E.02563
G1 X192.568 Y101.699 E.03103
G1 X192.193 Y102.288 E.02521
G1 X191.738 Y102.838 E.02577
G1 X191.218 Y103.327 E.02577
G1 X190.626 Y103.756 E.02638
G1 X190.005 Y104.095 E.02555
G1 X189.086 Y104.436 E.03542
G1 X188.398 Y104.587 E.02542
G1 X187.499 Y104.657 E.03254
G1 X184.762 Y104.657 E.09882
G1 X184.658 Y104.609 E.00413
G1 X184.63 Y104.557 E.00215
G1 X183.507 Y100.535 E.15076
G1 X183.467 Y100.456 E.00321
G1 X183.309 Y100.271 E.00878
G1 X183.191 Y100.186 E.00525
G1 X183.01 Y100.102 E.0072
G1 X182.802 Y100.069 E.00759
G1 X182.569 Y100.09 E.00845
G1 X166.003 Y104.657 E.62047
G1 X128.821 Y104.657 E1.3425
G1 X128.083 Y104.609 E.0267
G1 X127.398 Y104.48 E.02515
G1 X126.723 Y104.262 E.02563
G1 X125.948 Y103.891 E.03103
G1 X125.359 Y103.515 E.02521
G1 X124.809 Y103.06 E.02577
G1 X124.31 Y102.527 E.02638
G1 X123.9 Y101.963 E.02515
G1 X123.56 Y101.347 E.02544
G1 X123.211 Y100.408 E.03614
G1 X123.075 Y99.796 E.02265
G1 X123.1 Y99.684 E.00413
G1 X123.209 Y99.629 E.00442
G1 X126.91 Y99.617 E.13364
G1 X126.997 Y99.599 E.00321
G1 X127.217 Y99.495 E.00878
G1 X127.331 Y99.405 E.00525
G1 X127.497 Y99.186 E.00992
G1 X127.573 Y98.961 E.00857
G1 X127.589 Y98.835 E.0046
G1 X127.589 Y82.854 E.577
G1 X127.557 Y82.647 E.00758
G1 X127.455 Y82.43 E.00865
G1 X127.365 Y82.316 E.00525
G1 X127.146 Y82.15 E.00992
G1 X126.921 Y82.074 E.00857
G1 X126.795 Y82.058 E.0046
G1 X123.127 Y82.058 E.13243
G1 X123.023 Y82.01 E.00413
G1 X122.99 Y81.921 E.00344
G1 X122.99 Y40.861 E1.48252
G1 X123.038 Y40.123 E.0267
G1 X123.159 Y39.48 E.0236
G1 E-.56 F1800
;WIPE_START
G1 F3000
G1 X123.167 Y39.438 E-.00976
G1 X123.385 Y38.763 E-.16183
G1 X123.492 Y38.54 E-.05641
;WIPE_END
G1 E-.012 F1800
G1 X123.761 Y42.346 Z.4 F18000
G1 X127.812 Y99.629 Z.4
G1 Z.2
G1 E.8 F1800
G1 F3000
G1 X127.899 Y99.668 E.00344
G1 X128.175 Y99.894 E.01289
G1 X128.324 Y99.973 E.00609
G1 X128.638 Y100.067 E.01184
G1 X128.819 Y100.086 E.00658
G1 X179.848 Y100.086 E1.84246
G1 X179.952 Y100.134 E.00413
G1 X179.984 Y100.244 E.00413
G1 X179.885 Y100.356 E.00539
G1 X165.922 Y104.2 E.52289
G1 X128.84 Y104.2 E1.33891
G1 X128.132 Y104.154 E.02561
M73 P0 R88
G1 X127.503 Y104.033 E.02311
G1 X126.901 Y103.84 E.02284
G1 X126.178 Y103.494 E.02894
G1 X125.622 Y103.14 E.02379
G1 X125.117 Y102.72 E.02371
G1 X124.669 Y102.242 E.02368
G1 X124.292 Y101.725 E.0231
G1 X123.973 Y101.145 E.02388
G1 X123.649 Y100.269 E.03374
G1 X123.658 Y100.155 E.00413
G1 X123.778 Y100.084 E.00501
G1 X126.902 Y100.074 E.1128
G1 X127.081 Y100.047 E.00654
G1 X127.403 Y99.913 E.0126
G1 X127.612 Y99.765 E.00924
G1 X127.705 Y99.67 E.00479
G1 X127.774 Y99.643 E.00269
G1 X127.761 Y100.24 F18000
G1 F3000
G1 X127.879 Y100.243 E.00426
G1 X128.203 Y100.414 E.01321
G1 X128.495 Y100.502 E.01104
G1 X128.828 Y100.543 E.01209
G1 X176.466 Y100.543 E1.72004
G1 X176.57 Y100.591 E.00413
G1 X176.602 Y100.701 E.00413
G1 X176.503 Y100.813 E.00539
G1 X165.842 Y103.743 E.39919
G1 X128.859 Y103.743 E1.33531
G1 X128.198 Y103.7 E.0239
G1 X127.625 Y103.591 E.02108
G1 X127.062 Y103.41 E.02136
G1 X126.407 Y103.098 E.02618
G1 X125.885 Y102.765 E.02235
G1 X125.425 Y102.381 E.02164
G1 X125.016 Y101.943 E.02163
G1 X124.674 Y101.471 E.02104
G1 X124.395 Y100.964 E.02091
G1 X124.304 Y100.724 E.00927
G1 X124.313 Y100.61 E.00413
G1 X124.433 Y100.539 E.00501
G1 X126.895 Y100.531 E.08891
G1 X127.141 Y100.5 E.00895
G1 X127.265 Y100.466 E.00466
G1 X127.57 Y100.338 E.01192
G1 X127.723 Y100.245 E.00646
G1 X127.76 Y100.753 F18000
G1 F3000
G1 X127.876 Y100.759 E.00419
G1 X127.979 Y100.813 E.00418
G1 X128.355 Y100.937 E.01432
G1 X128.837 Y101 E.01753
G1 X173.079 Y101 E1.59741
G1 X173.183 Y101.048 E.00413
G1 X173.214 Y101.158 E.00413
G1 X173.115 Y101.27 E.00539
G1 X165.762 Y103.286 E.2753
G1 X128.878 Y103.285 E1.33172
G1 X128.264 Y103.246 E.02221
G1 X127.73 Y103.145 E.01964
G1 X127.223 Y102.98 E.01925
G1 X126.622 Y102.693 E.02403
G1 X126.149 Y102.389 E.0203
G1 X125.734 Y102.042 E.01955
G1 X125.364 Y101.644 E.0196
G1 X125.054 Y101.211 E.01926
G1 X125.032 Y101.099 E.00413
G1 X125.103 Y101.009 E.00413
G1 X125.164 Y100.994 E.00229
G1 X126.96 Y100.983 E.06483
G1 X127.19 Y100.955 E.00836
G1 X127.382 Y100.907 E.00717
G1 X127.723 Y100.768 E.0133
G1 X127.75 Y101.251 F18000
G1 F3000
G1 X127.842 Y101.249 E.00332
G1 X128.201 Y101.367 E.01364
G1 X128.846 Y101.457 E.02354
G1 X169.683 Y101.457 E1.47445
G1 X169.787 Y101.505 E.00413
G1 X169.819 Y101.615 E.00413
G1 X169.719 Y101.727 E.0054
G1 X165.682 Y102.829 E.15111
G1 X128.897 Y102.828 E1.32815
G1 X128.313 Y102.79 E.02112
G1 X127.835 Y102.698 E.01759
G1 X127.385 Y102.551 E.01712
G1 X126.853 Y102.296 E.02128
G1 X126.428 Y102.025 E.01822
G1 X126.029 Y101.687 E.01886
G1 X125.981 Y101.583 E.00413
G1 X126.028 Y101.479 E.00413
G1 X126.117 Y101.445 E.00341
G1 X127.024 Y101.436 E.03276
G1 X127.484 Y101.353 E.01689
G1 X127.712 Y101.265 E.00881
G1 X127.772 Y101.732 F18000
G1 F3000
G1 X127.853 Y101.734 E.00294
G1 X128.046 Y101.797 E.00733
G1 X128.856 Y101.915 E.02955
G1 X166.272 Y101.915 E1.35094
G1 X166.376 Y101.962 E.00413
G1 X166.408 Y102.072 E.00413
G1 X166.308 Y102.184 E.0054
G1 X165.602 Y102.372 E.02638
G1 X128.917 Y102.371 E1.32457
G1 X128.38 Y102.336 E.01941
G1 X127.958 Y102.257 E.01551
G1 X127.464 Y102.081 E.01895
G1 X127.382 Y102.001 E.00413
G1 X127.389 Y101.887 E.00413
G1 X127.471 Y101.82 E.00382
G1 X127.733 Y101.744 E.00986
G1 E-.56 F1800
;WIPE_START
G1 F3000
G1 X127.853 Y101.734 E-.02741
G1 X128.046 Y101.797 E-.04628
G1 X128.716 Y101.894 E-.15431
;WIPE_END
G1 E-.012 F1800
G1 X128.474 Y99.542 Z.4 F18000
G1 Z.2
G1 E.8 F1800
G1 F3000
G1 X128.461 Y99.537 E.0005
G1 X128.242 Y99.371 E.00992
G1 X128.152 Y99.257 E.00525
G1 X128.05 Y99.04 E.00865
G1 X128.018 Y98.833 E.00758
G1 X128.018 Y40.856 E2.09332
G1 X128.061 Y40.622 E.00857
G1 X128.108 Y40.504 E.0046
G1 X128.276 Y40.282 E.01005
G1 X128.39 Y40.192 E.00525
G1 X128.607 Y40.09 E.00865
G1 X128.814 Y40.058 E.00758
G1 X187.508 Y40.058 E2.11921
G1 X187.742 Y40.101 E.00857
G1 X187.86 Y40.148 E.0046
G1 X188.082 Y40.316 E.01005
G1 X188.172 Y40.43 E.00525
G1 X188.274 Y40.647 E.00865
G1 X188.306 Y40.854 E.00758
G1 X188.306 Y98.835 E2.09346
G1 X188.29 Y98.961 E.0046
G1 X188.215 Y99.186 E.00857
G1 X188.048 Y99.405 E.00992
G1 X187.934 Y99.495 E.00525
G1 X187.717 Y99.597 E.00865
G1 X187.51 Y99.629 E.00758
G1 X128.812 Y99.629 E2.11935
G1 X128.686 Y99.613 E.0046
G1 X128.512 Y99.555 E.00663
G1 X128.693 Y99.143 F18000
G1 F3000
G1 X128.608 Y99.097 E.0035
G1 X128.499 Y98.96 E.00632
G1 X128.475 Y98.843 E.00429
G1 X128.475 Y40.843 E2.09415
G1 X128.504 Y40.733 E.00413
G1 X128.55 Y40.648 E.0035
G1 X128.687 Y40.539 E.00632
G1 X128.804 Y40.515 E.00429
G1 X187.521 Y40.515 E2.12004
G1 X187.631 Y40.544 E.00413
G1 X187.716 Y40.59 E.0035
G1 X187.825 Y40.727 E.00632
G1 X187.849 Y40.843 E.00429
G1 X187.849 Y98.843 E2.09415
G1 X187.821 Y98.954 E.00413
G1 X187.774 Y99.039 E.0035
G1 X187.637 Y99.148 E.00632
G1 X187.521 Y99.172 E.00429
G1 X128.804 Y99.172 E2.12004
G1 X128.732 Y99.153 E.00268
G1 E-.56 F1800
;WIPE_START
G1 F3000
G1 X128.608 Y99.097 E-.03099
G1 X128.499 Y98.96 E-.03988
G1 X128.475 Y98.843 E-.02708
G1 X128.475 Y98.273 E-.13005
;WIPE_END
G1 E-.012 F1800
G1 X128.221 Y94.465 Z.4 F18000
G1 X127.374 Y81.761 Z.4
G1 Z.2
G1 E.8 F1800
G1 F3000
G1 X127.075 Y81.644 E.01158
G1 X126.785 Y81.601 E.0106
G1 X123.584 Y81.601 E.11556
G1 X123.48 Y81.553 E.00413
G1 X123.447 Y81.464 E.00344
G1 X123.448 Y40.871 E1.46564
G1 X123.491 Y40.189 E.02468
G1 X123.614 Y39.543 E.02372
G1 X123.814 Y38.924 E.02351
G1 X124.153 Y38.218 E.02827
G1 X124.507 Y37.662 E.02379
G1 X124.927 Y37.157 E.02371
G1 X125.405 Y36.709 E.02367
G1 X125.936 Y36.323 E.02368
G1 X126.518 Y36.005 E.02397
G1 X127.377 Y35.688 E.03304
G1 X128.002 Y35.553 E.02312
G1 X128.858 Y35.487 E.03099
G1 X187.484 Y35.487 E2.11676
G1 X188.192 Y35.533 E.0256
M73 P1 R88
G1 X188.836 Y35.658 E.0237
G1 X189.459 Y35.861 E.02366
G1 X190.083 Y36.157 E.02492
G1 X190.69 Y36.539 E.0259
G1 X191.219 Y36.978 E.02483
G1 X191.656 Y37.445 E.02309
G1 X192.032 Y37.962 E.02308
G1 X192.36 Y38.56 E.02464
G1 X192.651 Y39.333 E.02981
G1 X192.806 Y40.008 E.02499
G1 X192.876 Y40.877 E.03151
G1 X192.877 Y98.808 E2.09163
G1 X192.833 Y99.498 E.02499
G1 X192.71 Y100.144 E.02371
G1 X192.51 Y100.763 E.02351
G1 X192.172 Y101.469 E.02827
G1 X191.817 Y102.025 E.02379
G1 X191.397 Y102.53 E.02371
G1 X190.919 Y102.979 E.02369
G1 X190.388 Y103.364 E.02366
G1 X189.806 Y103.682 E.02396
G1 X188.966 Y103.993 E.03235
G1 X188.322 Y104.134 E.02381
G1 X187.476 Y104.199 E.03061
G1 X185.109 Y104.2 E.08547
G1 X185.005 Y104.152 E.00413
G1 X184.977 Y104.1 E.00215
G1 X183.95 Y100.421 E.13792
G1 X183.889 Y100.277 E.00564
G1 X183.892 Y100.162 E.00413
G1 X184.015 Y100.086 E.00522
G1 X187.501 Y100.086 E.12587
G1 X187.779 Y100.05 E.01012
G1 X187.921 Y100.007 E.00534
G1 X188.118 Y99.914 E.00786
G1 X188.329 Y99.765 E.00935
G1 X188.417 Y99.675 E.00453
G1 X188.571 Y99.472 E.00921
G1 X188.651 Y99.321 E.00617
G1 X188.72 Y99.117 E.00779
G1 X188.759 Y98.898 E.00803
G1 X188.763 Y40.863 E2.09541
G1 X188.727 Y40.585 E.01012
G1 X188.685 Y40.446 E.00524
G1 X188.524 Y40.139 E.01254
G1 X188.348 Y39.944 E.00945
G1 X188.147 Y39.792 E.00911
G1 X187.918 Y39.68 E.00921
G1 X187.495 Y39.601 E.01553
G1 X128.823 Y39.601 E2.11843
G1 X128.545 Y39.637 E.01012
G1 X128.406 Y39.679 E.00524
G1 X128.099 Y39.84 E.01254
G1 X127.904 Y40.016 E.00945
G1 X127.681 Y40.341 E.01422
G1 X127.61 Y40.548 E.00794
G1 X127.561 Y40.866 E.01162
