; HEADER_BLOCK_START
; generated by Creality_Print V7.0.1.4212 on 2026-03-09 at 17:06:51
; total layer number: 175
; filament_density: 1.23
; filament_diameter: 1.75
; max_z_height: 35.00
; creality_uuid: d5150f02-fc90-487b-aa58-764a97f2c913
; HEADER_BLOCK_END

; MINX = 32.55
; MINY = 37.67
; MINZ = 0.00
; MAXX = 187.89
; MAXY = 182.33
; MAXZ = 35.00

; multicolor_method = 0 
; THUMBNAIL_BLOCK_START

;
; THUMBNAIL_BLOCK_END

; THUMBNAIL_BLOCK_START

;
; THUMBNAIL_BLOCK_END

; external perimeters extrusion width = 0.42mm
; perimeters extrusion width = 0.45mm
; infill extrusion width = 0.45mm
; solid infill extrusion width = 0.42mm
; top infill extrusion width = 0.42mm
; first layer extrusion width = 0.50mm

; external perimeters extrusion width = 0.42mm
; perimeters extrusion width = 0.45mm
; infill extrusion width = 0.45mm
; solid infill extrusion width = 0.42mm
; top infill extrusion width = 0.42mm
; first layer extrusion width = 0.50mm

; external perimeters extrusion width = 0.42mm
; perimeters extrusion width = 0.45mm
; infill extrusion width = 0.45mm
; solid infill extrusion width = 0.42mm
; top infill extrusion width = 0.42mm
; first layer extrusion width = 0.50mm

; external perimeters extrusion width = 0.42mm
; perimeters extrusion width = 0.45mm
; infill extrusion width = 0.45mm
; solid infill extrusion width = 0.42mm
; top infill extrusion width = 0.42mm
; first layer extrusion width = 0.50mm

; external perimeters extrusion width = 0.42mm
; perimeters extrusion width = 0.45mm
; infill extrusion width = 0.45mm
; solid infill extrusion width = 0.42mm
; top infill extrusion width = 0.42mm
; first layer extrusion width = 0.50mm

; external perimeters extrusion width = 0.42mm
; perimeters extrusion width = 0.45mm
; infill extrusion width = 0.45mm
; solid infill extrusion width = 0.42mm
; top infill extrusion width = 0.42mm
; first layer extrusion width = 0.50mm

; external perimeters extrusion width = 0.42mm
; perimeters extrusion width = 0.45mm
; infill extrusion width = 0.45mm
; solid infill extrusion width = 0.42mm
; top infill extrusion width = 0.42mm
; first layer extrusion width = 0.50mm

; EXECUTABLE_BLOCK_START
EXCLUDE_OBJECT_DEFINE NAME=Ball_arm.stl_id_0_copy_0 CENTER=109.997,163.256 POLYGON=[[32.5485,163.624],[37.2258,144.178],[182.79,144.178],[184.854,151.655],[187.446,161.047],[110.33,182.333],[32.5485,163.624]]
EXCLUDE_OBJECT_DEFINE NAME=Ball_arm.stl_id_1_copy_0 CENTER=110.444,131.635 POLYGON=[[32.9949,132.003],[37.6722,112.558],[183.237,112.558],[185.3,120.034],[187.893,129.427],[110.776,150.713],[32.9949,132.003]]
EXCLUDE_OBJECT_DEFINE NAME=Ball_box.stl_id_2_copy_0 CENTER=158.162,73.0218 POLYGON=[[128.804,44.0218],[187.521,44.0218],[187.521,102.022],[128.804,102.022],[128.804,44.0218]]
EXCLUDE_OBJECT_DEFINE NAME=front_Support.stl_id_3_copy_0 CENTER=96.7402,84.344 POLYGON=[[71.9915,94.9506],[107.347,59.5952],[121.489,73.7374],[86.1336,109.093],[71.9915,94.9506]]
EXCLUDE_OBJECT_DEFINE NAME=back_support.stl_id_4_copy_0 CENTER=78.023,70.1921 POLYGON=[[58.224,75.849],[83.6798,50.3931],[97.822,64.5353],[72.3661,89.9911],[58.224,75.849]]
EXCLUDE_OBJECT_DEFINE NAME=Ball_plate.stl_id_5_copy_0 CENTER=57.5267,89.2938 POLYGON=[[44.7988,87.8796],[56.1125,76.5659],[70.2546,90.7081],[58.9409,102.022],[44.7988,87.8796]]
EXCLUDE_OBJECT_DEFINE NAME=Ball_plate.stl_id_6_copy_0 CENTER=100.65,50.3931 POLYGON=[[87.9225,51.8074],[102.065,37.6652],[113.378,48.9789],[99.2362,63.1211],[87.9225,51.8074]]
M73 P0 R108
; max_print_temp = 75,250
;TYPE:Custom
M220 S100 ;Reset Feedrate 
M221 S100 ;Reset Flowrate 
 
M140 S75 ;Set final bed temp  
G28 ;Home 
 
G92 E0 ;Reset Extruder 
G1 Z2.0 F3000 ;Move Z Axis up 
M104 S250 ;Set final nozzle temp  
G1 X-2.0 Y20 Z0.28 F5000.0 ;Move to start position 
M190 S75 ;Wait for bed temp to stabilize  
M109 S250 ;Wait for nozzle temp to stabilize  
G1 X-2.0 Y145.0 Z0.28 F1500.0 E15 ;Draw the first line 
G1 X-1.7 Y145.0 Z0.28 F5000.0 ;Move to side a little 
G1 X-1.7 Y20 Z0.28 F1500.0 E30 ;Draw the second line 
G92 E0 ;Reset Extruder 
G1 E-1.0000 F1800 ;Retract a bit 
G1 Z2.0 F3000 ;Move Z Axis up 
G1 E0.0000 F1800
G90
G21
M83 ; use relative distances for extrusion
; filament start gcode
SET_PRESSURE_ADVANCE ADVANCE=0.08; Override pressure advance value
G1 E-.8 F1800
G1 Z.2 F18000
M106 S0
;LAYER_CHANGE
;:0.2
;HEIGHT:0.2
;BEFORE_LAYER_CHANGE
;0.2
G92 E0
;TIME_ELAPSED:69.083099
;_SET_FAN_SPEED_CHANGING_LAYER
SET_VELOCITY_LIMIT ACCEL=500 ACCEL_TO_DECEL=125
SET_VELOCITY_LIMIT SQUARE_CORNER_VELOCITY=9
; OBJECT_ID: 151
; printing object Ball_box.stl id:2 copy 0
EXCLUDE_OBJECT_START NAME=Ball_box.stl_id_2_copy_0
G1 X122.962 Y41.762 Z.4 F18000
G1 Z.2
G1 E.8 F1800
;TYPE:Brim
;WIDTH:0.5
G1 F3000
G1 X123.351 Y40.95 E.03251
G1 X123.766 Y40.3 E.02785
G1 X124.259 Y39.707 E.02784
G1 X124.821 Y39.18 E.02784
G1 X125.445 Y38.727 E.02784
G1 X126.118 Y38.357 E.02775
G1 X127.1 Y37.992 E.0378
G1 X127.849 Y37.826 E.02772
G1 X128.812 Y37.751 E.03488
G1 X187.513 Y37.751 E2.11946
G1 X188.29 Y37.8 E.02809
G1 X189.047 Y37.944 E.02784
G1 X189.781 Y38.181 E.02782
G1 X190.509 Y38.523 E.02905
G1 X191.243 Y38.985 E.03131
G1 X191.836 Y39.477 E.02781
G1 X192.363 Y40.039 E.02784
G1 X192.815 Y40.663 E.02784
G1 X193.186 Y41.337 E.02776
G1 X193.536 Y42.266 E.03583
G1 X193.716 Y43.068 E.02969
G1 X193.791 Y44.031 E.03486
G1 X193.791 Y102.015 E2.09357
G1 X193.743 Y102.791 E.02809
G1 X193.599 Y103.549 E.02784
G1 X193.362 Y104.281 E.0278
G1 X192.973 Y105.093 E.03251
G1 X192.558 Y105.744 E.02785
G1 X192.065 Y106.337 E.02784
G1 X191.503 Y106.864 E.02784
G1 X190.879 Y107.317 E.02784
G1 X190.206 Y107.687 E.02775
G1 X189.224 Y108.052 E.0378
G1 X188.475 Y108.218 E.02772
G1 X187.512 Y108.292 E.03488
G1 X128.811 Y108.292 E2.11946
G1 X128.034 Y108.244 E.02809
G1 X127.277 Y108.1 E.02784
G1 X126.544 Y107.863 E.0278
G1 X125.732 Y107.474 E.03251
G1 X125.082 Y107.059 E.02785
G1 X124.489 Y106.567 E.02784
G1 X123.961 Y106.004 E.02784
G1 X123.509 Y105.38 E.02784
G1 X123.138 Y104.707 E.02775
G1 X122.773 Y103.726 E.0378
G1 X122.608 Y102.976 E.02772
G1 X122.533 Y102.013 E.03488
G1 X122.533 Y44.029 E2.09357
G1 X122.582 Y43.252 E.02809
G1 X122.725 Y42.495 E.02784
G1 X122.95 Y41.8 E.02635
G1 X123.385 Y41.941 F18000
G1 F3000
G1 X123.756 Y41.166 E.03103
G1 X124.131 Y40.577 E.02521
G1 X124.587 Y40.027 E.02577
G1 X125.12 Y39.528 E.02638
G1 X125.698 Y39.109 E.02577
G1 X126.319 Y38.77 E.02555
G1 X127.239 Y38.429 E.03542
G1 X127.926 Y38.278 E.02542
G1 X128.835 Y38.208 E.03292
G1 X187.503 Y38.209 E2.11827
G1 X188.241 Y38.256 E.0267
G1 X188.942 Y38.39 E.02577
G1 X189.62 Y38.61 E.02574
G1 X190.296 Y38.93 E.02698
G1 X190.967 Y39.351 E.0286
G1 X191.527 Y39.817 E.02632
G1 X192.004 Y40.325 E.02515
G1 X192.424 Y40.902 E.02577
G1 X192.773 Y41.538 E.02621
G1 X193.093 Y42.388 E.0328
G1 X193.261 Y43.127 E.02734
G1 X193.334 Y44.043 E.03319
G1 X193.334 Y101.996 E2.09245
G1 X193.287 Y102.743 E.02701
G1 X193.157 Y103.427 E.02515
G1 X192.939 Y104.103 E.02563
G1 X192.568 Y104.878 E.03103
G1 X192.193 Y105.466 E.02521
G1 X191.738 Y106.016 E.02577
G1 X191.204 Y106.516 E.02638
G1 X190.626 Y106.934 E.02577
G1 X190.005 Y107.274 E.02555
G1 X189.086 Y107.614 E.03542
G1 X188.398 Y107.765 E.02542
G1 X187.489 Y107.835 E.03293
G1 X128.829 Y107.835 E2.11796
G1 X128.083 Y107.788 E.02701
G1 X127.398 Y107.658 E.02515
G1 X126.723 Y107.441 E.02563
G1 X125.948 Y107.069 E.03103
G1 X125.359 Y106.694 E.02521
G1 X124.809 Y106.239 E.02577
G1 X124.31 Y105.705 E.02638
G1 X123.891 Y105.127 E.02577
G1 X123.552 Y104.507 E.02555
G1 X123.211 Y103.587 E.03542
G1 X123.06 Y102.899 E.02542
G1 X122.99 Y101.99 E.03292
G1 X122.99 Y44.047 E2.09207
G1 X123.038 Y43.301 E.02701
G1 X123.167 Y42.617 E.02515
G1 X123.372 Y41.979 E.02418
G1 X123.807 Y42.119 F18000
G1 F3000
G1 X124.161 Y41.381 E.02954
G1 X124.507 Y40.84 E.02319
G1 X124.915 Y40.348 E.02308
G1 X125.418 Y39.876 E.02492
G1 X125.95 Y39.493 E.02368
G1 X126.518 Y39.183 E.02335
G1 X127.377 Y38.867 E.03304
G1 X128.002 Y38.731 E.02312
G1 X128.858 Y38.665 E.03099
G1 X187.484 Y38.666 E2.11676
G1 X188.192 Y38.712 E.0256
G1 X188.836 Y38.836 E.0237
G1 X189.459 Y39.04 E.02366
G1 X190.083 Y39.335 E.02492
G1 X190.69 Y39.717 E.0259
G1 X191.219 Y40.156 E.02483
G1 X191.656 Y40.624 E.02309
G1 X192.032 Y41.14 E.02308
G1 X192.36 Y41.739 E.02464
G1 X192.651 Y42.511 E.02981
G1 X192.806 Y43.186 E.02499
G1 X192.876 Y44.056 E.03151
G1 X192.877 Y101.977 E2.09131
G1 X192.831 Y102.694 E.02592
G1 X192.71 Y103.322 E.0231
G1 X192.517 Y103.924 E.02284
G1 X192.163 Y104.662 E.02954
G1 X191.817 Y105.203 E.02319
G1 X191.409 Y105.696 E.02308
G1 X190.906 Y106.167 E.02492
G1 X190.374 Y106.551 E.02368
G1 X189.806 Y106.86 E.02335
G1 X188.947 Y107.177 E.03304
G1 X188.322 Y107.313 E.02312
G1 X187.466 Y107.378 E.03099
G1 X128.848 Y107.378 E2.11645
G1 X128.132 Y107.332 E.02592
G1 X127.503 Y107.211 E.0231
G1 X126.901 Y107.018 E.02284
G1 X126.163 Y106.665 E.02954
G1 X125.622 Y106.318 E.02319
G1 X125.13 Y105.911 E.02308
G1 X124.658 Y105.407 E.02492
G1 X124.274 Y104.875 E.02368
G1 X123.965 Y104.307 E.02335
G1 X123.648 Y103.448 E.03304
G1 X123.513 Y102.823 E.02312
G1 X123.447 Y101.967 E.03099
G1 X123.447 Y44.066 E2.09056
G1 X123.493 Y43.35 E.02592
G1 X123.614 Y42.722 E.0231
G1 X123.795 Y42.157 E.0214
G1 X124.23 Y42.298 F18000
G1 F3000
G1 X124.565 Y41.597 E.02804
G1 X124.872 Y41.117 E.02056
G1 X125.243 Y40.668 E.02101
G1 X125.716 Y40.225 E.02344
G1 X126.202 Y39.876 E.02157
G1 X126.717 Y39.597 E.02115
G1 X127.514 Y39.305 E.03067
G1 X128.078 Y39.184 E.02082
G1 X128.881 Y39.122 E.02907
G1 X187.465 Y39.123 E2.11524
G1 X188.142 Y39.168 E.0245
G1 X188.713 Y39.278 E.021
G1 X189.281 Y39.462 E.02157
G1 X189.855 Y39.733 E.02291
G1 X190.414 Y40.083 E.02381
G1 X190.911 Y40.496 E.02333
G1 X191.297 Y40.909 E.02042
G1 X191.64 Y41.379 E.021
G1 X191.948 Y41.939 E.02308
G1 X192.209 Y42.635 E.02683
G1 X192.351 Y43.246 E.02266
G1 X192.419 Y44.069 E.0298
G1 X192.42 Y101.958 E2.09015
G1 X192.375 Y102.644 E.02482
G1 X192.268 Y103.2 E.02045
G1 X192.094 Y103.746 E.02068
G1 X191.759 Y104.447 E.02804
G1 X191.452 Y104.926 E.02056
G1 X191.081 Y105.375 E.02101
G1 X190.608 Y105.819 E.02344
G1 X190.122 Y106.168 E.02157
G1 X189.607 Y106.446 E.02115
G1 X188.81 Y106.739 E.03067
G1 X188.246 Y106.86 E.02082
G1 X187.443 Y106.921 E.02908
G1 X128.867 Y106.921 E2.11493
G1 X128.181 Y106.876 E.02482
M73 P0 R107
G1 X127.625 Y106.769 E.02045
G1 X127.079 Y106.595 E.02068
G1 X126.379 Y106.26 E.02804
G1 X125.899 Y105.953 E.02056
G1 X125.45 Y105.583 E.02101
G1 X125.006 Y105.109 E.02344
G1 X124.658 Y104.624 E.02157
G1 X124.379 Y104.108 E.02115
G1 X124.086 Y103.311 E.03067
G1 X123.965 Y102.747 E.02082
G1 X123.904 Y101.944 E.02907
G1 X123.904 Y44.086 E2.08904
G1 X123.949 Y43.4 E.02482
G1 X124.056 Y42.843 E.02045
G1 X124.218 Y42.336 E.01924
G1 X124.653 Y42.475 F18000
G1 F3000
G1 X124.97 Y41.813 E.02653
G1 X125.248 Y41.381 E.01854
G1 X125.583 Y40.976 E.01898
G1 X126.015 Y40.573 E.0213
G1 X126.452 Y40.26 E.01944
G1 X126.915 Y40.012 E.01895
G1 X127.651 Y39.743 E.0283
G1 X128.153 Y39.636 E.01853
G1 X128.904 Y39.58 E.02718
G1 X187.445 Y39.58 E2.11371
G1 X188.092 Y39.623 E.02339
G1 X188.607 Y39.724 E.01895
G1 X189.12 Y39.892 E.0195
G1 X189.642 Y40.139 E.02086
G1 X190.138 Y40.45 E.02111
G1 X190.603 Y40.835 E.02182
G1 X190.949 Y41.208 E.01835
G1 X191.248 Y41.617 E.01832
G1 X191.535 Y42.14 E.02151
G1 X191.768 Y42.759 E.02388
G1 X191.896 Y43.307 E.02033
G1 X191.961 Y44.082 E.02807
G1 X191.963 Y101.938 E2.08897
G1 X191.919 Y102.594 E.02373
G1 X191.822 Y103.095 E.01843
G1 X191.671 Y103.568 E.01792
G1 X191.354 Y104.231 E.02653
G1 X191.076 Y104.663 E.01854
G1 X190.741 Y105.068 E.01898
G1 X190.31 Y105.47 E.0213
G1 X189.872 Y105.783 E.01944
G1 X189.409 Y106.032 E.01895
G1 X188.673 Y106.301 E.0283
G1 X188.171 Y106.407 E.01853
G1 X187.42 Y106.464 E.02718
G1 X128.887 Y106.464 E2.11341
G1 X128.231 Y106.42 E.02373
G1 X127.73 Y106.323 E.01843
G1 X127.257 Y106.172 E.01792
G1 X126.594 Y105.855 E.02653
G1 X126.162 Y105.577 E.01854
G1 X125.758 Y105.242 E.01898
G1 X125.355 Y104.811 E.0213
G1 X125.042 Y104.373 E.01944
G1 X124.793 Y103.911 E.01895
G1 X124.524 Y103.174 E.0283
G1 X124.418 Y102.672 E.01853
G1 X124.361 Y101.922 E.02718
G1 X124.361 Y44.105 E2.08752
G1 X124.405 Y43.449 E.02373
G1 X124.502 Y42.948 E.01843
G1 X124.641 Y42.514 E.01648
G1 X125.076 Y42.653 F18000
G1 F3000
G1 X125.375 Y42.028 E.02501
G1 X125.623 Y41.645 E.01649
G1 X125.923 Y41.284 E.01694
G1 X126.312 Y40.922 E.01917
G1 X126.702 Y40.645 E.0173
G1 X127.111 Y40.426 E.01675
G1 X127.787 Y40.181 E.02594
G1 X128.227 Y40.089 E.01624
G1 X128.926 Y40.037 E.02531
G1 X187.425 Y40.037 E2.11218
G1 X188.041 Y40.079 E.02227
G1 X188.5 Y40.17 E.01689
G1 X188.942 Y40.315 E.01681
G1 X189.415 Y40.537 E.01887
G1 X189.862 Y40.816 E.01901
G1 X190.294 Y41.175 E.0203
G1 X190.59 Y41.493 E.0157
G1 X190.857 Y41.856 E.01624
G1 X191.122 Y42.34 E.01993
G1 X191.326 Y42.883 E.02096
G1 X191.441 Y43.369 E.01801
G1 X191.504 Y44.095 E.02633
G1 X191.506 Y101.918 E2.08776
G1 X191.463 Y102.544 E.02262
G1 X191.38 Y102.974 E.01583
G1 X191.248 Y103.39 E.01577
G1 X190.949 Y104.015 E.02501
G1 X190.701 Y104.399 E.01649
G1 X190.401 Y104.76 E.01694
G1 X190.012 Y105.121 E.01917
G1 X189.622 Y105.399 E.0173
G1 X189.213 Y105.617 E.01675
G1 X188.537 Y105.862 E.02594
G1 X188.097 Y105.954 E.01624
G1 X187.398 Y106.007 E.02531
G1 X128.907 Y106.007 E2.11188
G1 X128.282 Y105.964 E.02262
G1 X127.851 Y105.881 E.01583
G1 X127.435 Y105.749 E.01577
G1 X126.81 Y105.451 E.02501
G1 X126.426 Y105.203 E.01649
G1 X126.066 Y104.902 E.01694
G1 X125.704 Y104.513 E.01917
G1 X125.426 Y104.123 E.0173
G1 X125.208 Y103.714 E.01675
G1 X124.963 Y103.038 E.02594
G1 X124.871 Y102.598 E.01624
G1 X124.818 Y101.899 E.02531
G1 X124.818 Y44.125 E2.08599
G1 X124.861 Y43.5 E.02262
G1 X124.944 Y43.07 E.01583
G1 X125.064 Y42.691 E.01433
G1 X125.5 Y42.831 F18000
G1 F3000
G1 X125.779 Y42.244 E.02346
G1 X125.997 Y41.909 E.01442
G1 X126.262 Y41.593 E.01491
G1 X126.608 Y41.272 E.01704
G1 X126.951 Y41.03 E.01516
G1 X127.307 Y40.841 E.01454
G1 X127.922 Y40.62 E.02359
G1 X128.3 Y40.542 E.01395
G1 X128.948 Y40.494 E.02347
G1 X187.405 Y40.494 E2.11063
G1 X187.989 Y40.535 E.02114
G1 X188.376 Y40.611 E.01423
G1 X188.765 Y40.737 E.01477
G1 X189.188 Y40.936 E.01688
G1 X189.586 Y41.183 E.01688
G1 X189.986 Y41.514 E.01877
G1 X190.242 Y41.791 E.01363
G1 X190.465 Y42.094 E.01357
G1 X190.709 Y42.54 E.01835
G1 X190.885 Y43.009 E.01807
G1 X190.986 Y43.432 E.0157
G1 X191.046 Y44.121 E.02498
G1 X191.049 Y101.898 E2.08611
G1 X191.007 Y102.493 E.02151
G1 X190.938 Y102.853 E.01326
G1 X190.825 Y103.213 E.01361
G1 X190.545 Y103.799 E.02346
G1 X190.327 Y104.134 E.01442
G1 X190.062 Y104.451 E.01491
G1 X189.716 Y104.771 E.01704
G1 X189.373 Y105.014 E.01516
G1 X189.017 Y105.202 E.01454
G1 X188.402 Y105.424 E.02359
G1 X188.024 Y105.502 E.01395
G1 X187.376 Y105.55 E.02347
G1 X128.927 Y105.55 E2.11035
G1 X128.333 Y105.509 E.02151
G1 X127.972 Y105.439 E.01326
G1 X127.612 Y105.326 E.01361
G1 X127.026 Y105.046 E.02346
G1 X126.691 Y104.828 E.01442
G1 X126.375 Y104.563 E.01491
G1 X126.054 Y104.217 E.01704
G1 X125.812 Y103.874 E.01516
G1 X125.623 Y103.518 E.01454
G1 X125.402 Y102.903 E.02359
G1 X125.324 Y102.525 E.01395
G1 X125.275 Y101.877 E.02347
G1 X125.275 Y44.145 E2.08446
G1 X125.317 Y43.551 E.02151
G1 X125.386 Y43.19 E.01326
G1 X125.488 Y42.869 E.01217
G1 X125.939 Y43.004 F18000
G1 F3000
G1 X125.968 Y42.906 E.00369
G1 X126.245 Y42.38 E.02145
G1 X126.642 Y41.887 E.02285
G1 X127.144 Y41.472 E.02352
G1 X127.639 Y41.205 E.02029
G1 X128.168 Y41.037 E.02005
G1 X128.856 Y40.951 E.02503
G1 X187.463 Y40.951 E2.11605
G1 X188.111 Y41.03 E.0236
G1 X188.741 Y41.231 E.02385
G1 X189.252 Y41.525 E.02128
G1 X189.737 Y41.944 E.02313
G1 X190.131 Y42.457 E.02336
G1 X190.376 Y42.954 E.02002
G1 X190.526 Y43.485 E.01991
G1 X190.592 Y44.073 E.02139
G1 X190.592 Y101.973 E2.09053
G1 X190.523 Y102.562 E.0214
G1 X190.321 Y103.213 E.02459
G1 X190.007 Y103.771 E.02313
G1 X189.598 Y104.239 E.02245
G1 X189.086 Y104.632 E.02331
G1 X188.588 Y104.877 E.02001
G1 X188.058 Y105.027 E.01991
G1 X187.469 Y105.093 E.02139
G1 X128.852 Y105.093 E2.11643
